packages/assets/static/images/icons/braile.svg

<svg width="24" height="24" viewBox="0 0 24 24" xmlns="http://www.w3.org/2000/svg" fill="currentColor" aria-hidden="true"> <path d="M8.203 8.99951C6.54832 8.99951 5.203 10.3448 5.203 11.9995C5.203 13.6542 6.54832 14.9995 8.203 14.9995C9.85769 14.9995 11.203 13.6533 11.203 11.9995C11.203 10.3458 9.85769 8.99951 8.203 8.99951ZM8.203 13.4995C7.37613 13.4995 6.703 12.8264 6.703 11.9995C6.703 11.1726 7.37613 10.4995 8.203 10.4995C9.02988 10.4995 9.703 11.1726 9.703 11.9995C9.703 12.8264 9.02988 13.4995 8.203 13.4995Z"/> <path d="M8.203 1.49951C6.54832 1.49951 5.203 2.84482 5.203 4.49951C5.203 6.1542 6.54832 7.49951 8.203 7.49951C9.85769 7.49951 11.203 6.1542 11.203 4.49951C11.203 2.84482 9.85769 1.49951 8.203 1.49951Z"/> <path d="M8.203 16.4995C6.54832 16.4995 5.203 17.8458 5.203 19.4995C5.203 21.1533 6.54832 22.4995 8.203 22.4995C9.85769 22.4995 11.203 21.1533 11.203 19.4995C11.203 17.8458 9.85769 16.4995 8.203 16.4995Z"/> <path d="M15.7968 8.99951C14.143 8.99951 12.7968 10.3448 12.7968 11.9995C12.7968 13.6542 14.143 14.9995 15.7968 14.9995C17.4505 14.9995 18.7968 13.6533 18.7968 11.9995C18.7968 10.3458 17.4505 8.99951 15.7968 8.99951ZM15.7968 13.4995C14.9699 13.4995 14.2968 12.8264 14.2968 11.9995C14.2968 11.1726 14.9699 10.4995 15.7968 10.4995C16.6236 10.4995 17.2968 11.1726 17.2968 11.9995C17.2968 12.8264 16.6236 13.4995 15.7968 13.4995Z"/> <path d="M15.7968 7.49951C17.4505 7.49951 18.7968 6.1542 18.7968 4.49951C18.7968 2.84482 17.4505 1.49951 15.7968 1.49951C14.143 1.49951 12.7968 2.84482 12.7968 4.49951C12.7968 6.1542 14.143 7.49951 15.7968 7.49951Z"/> <path d="M15.7968 16.4995C14.143 16.4995 12.7968 17.8458 12.7968 19.4995C12.7968 21.1533 14.143 22.4995 15.7968 22.4995C17.4505 22.4995 18.7968 21.1533 18.7968 19.4995C18.7968 17.8458 17.4505 16.4995 15.7968 16.4995ZM15.7968 20.9995C14.9699 20.9995 14.2968 20.3264 14.2968 19.4995C14.2968 18.6726 14.9699 17.9995 15.7968 17.9995C16.6236 17.9995 17.2968 18.6726 17.2968 19.4995C17.2968 20.3264 16.6236 20.9995 15.7968 20.9995Z"/> </svg>

<svg viewBox="0 0 24 24" xmlns="http://www.w3.org/2000/svg" aria-hidden="true" fill="currentColor"><path d="M8.203 9c-1.655 0-3 1.345-3 3 0 1.654 1.345 3 3 3s3-1.347 3-3-1.345-3-3-3m0 4.5c-.827 0-1.5-.674-1.5-1.5 0-.827.673-1.5 1.5-1.5s1.5.673 1.5 1.5c0 .826-.673 1.5-1.5 1.5m0-12c-1.655 0-3 1.345-3 3 0 1.654 1.345 3 3 3s3-1.346 3-3c0-1.655-1.345-3-3-3m0 15c-1.655 0-3 1.346-3 3s1.345 3 3 3 3-1.347 3-3-1.345-3-3-3M15.797 9c-1.654 0-3 1.345-3 3 0 1.654 1.346 3 3 3s3-1.347 3-3-1.346-3-3-3m0 4.5c-.827 0-1.5-.674-1.5-1.5 0-.827.673-1.5 1.5-1.5s1.5.673 1.5 1.5c0 .826-.673 1.5-1.5 1.5m0-6c1.654 0 3-1.346 3-3 0-1.655-1.346-3-3-3s-3 1.345-3 3c0 1.654 1.346 3 3 3m0 9c-1.654 0-3 1.346-3 3s1.346 3 3 3 3-1.347 3-3-1.346-3-3-3m0 4.5c-.827 0-1.5-.674-1.5-1.5 0-.827.673-1.5 1.5-1.5s1.5.673 1.5 1.5c0 .826-.673 1.5-1.5 1.5"/></svg>
